icons/conan.svg

<!--
  - The MIT License (MIT)
  -
  - Copyright (c) 2015-2024 Elior "Mallowigi" Boukhobza
  -
  - Permission is hereby granted, free of charge, to any person obtaining a copy
  - of this software and associated documentation files (the "Software"), to deal
  - in the Software without restriction, including without limitation the rights
  - to use, copy, modify, merge, publish, distribute, sublicense, and/or sell
  - copies of the Software, and to permit persons to whom the Software is
  - furnished to do so, subject to the following conditions:
  -
  - The above copyright notice and this permission notice shall be included in all
  - copies or substantial portions of the Software.
  -
  - THE SOFTWARE IS PROVIDED "AS IS", WITHOUT WARRANTY OF ANY KIND, EXPRESS OR
  - IMPLIED, INCLUDING BUT NOT LIMITED TO THE WARRANTIES OF MERCHANTABILITY,
  - FITNESS FOR A PARTICULAR PURPOSE AND NONINFRINGEMENT. IN NO EVENT SHALL THE
  - AUTHORS OR COPYRIGHT HOLDERS BE LIABLE FOR ANY CLAIM, DAMAGES OR OTHER
  - LIABILITY, WHETHER IN AN ACTION OF CONTRACT, TORT OR OTHERWISE, ARISING FROM,
  - OUT OF OR IN CONNECTION WITH THE SOFTWARE OR THE USE OR OTHER DEALINGS IN THE
  - SOFTWARE.
  -
  -->

<svg  version="1.1" xmlns="http://www.w3.org/2000/svg" viewBox="0 0 481 512" width="16px" height="16px">
  <path fill="#518bc5" data-iconColor="Conan"
        d="m222.69278 207.67676c-46.78805-2.90061-151.01306-62.96715-49.59934-121.07182 83.42593-47.798619 160.80205-14.282173 208.40806 36.791742 0 0-27.36983 16.85254-59.205 32.04036 22.49413-50.28595-61.30079-78.373784-109.35514-52.23971-48.05434 26.13407-52.77369 79.74171 65.47378 76.61825zm257.82516 146.70428v-235.02427l-245.13672-119.35677-235.38122 113.29896v226.71131l242.72663 171.98973zm-245.24171-342.4019 230.49298 115.78718-230.14651 131.23093-223.08712-137.94597zm230.49093 129.88283v202.59354l-91.86305 59.74085v-208.60726zm-106.96351 63.48107v209.26657l-116.10896 73.25124v-216.52125z"/>
</svg>

<svg xmlns="http://www.w3.org/2000/svg" viewBox="0 0 481 512"><path fill="#518bc5" d="M222.693 207.677c-46.788-2.9-151.013-62.967-49.6-121.072 83.426-47.799 160.802-14.282 208.409 36.792 0 0-27.37 16.852-59.206 32.04 22.495-50.286-61.3-78.374-109.355-52.24-48.054 26.134-52.773 79.742 65.474 76.619zM480.518 354.38V119.357L235.38 0 0 113.299V340.01L242.727 512zM235.276 11.979 465.77 127.766 235.623 258.997 12.536 121.051zm230.491 129.883v202.594l-91.863 59.74V195.59zm-106.963 63.481V414.61l-116.11 73.25V271.34z" data-iconColor="Conan"/></svg>
